X: 113
T:Mary's Wedding
M:4/4
L:1/8
F:http://blackrosetheband.googlepages.com/ABCTUNES.ABC May 2009
K:D
"D"A,2 A,A, A,2B,2| "Bm"D2E2 F3F|"G"E2 D2 B,2 D2|"A"F2 E2 F2 A2|
"D"A,2 A,A, A,2B,2| "Bm"D2E2 F3F|"Em"E2 D2 B,2 G,2|"A"A,4 A,4:|
"Bm"A4 A2B2| "D"A2G2 F3F|"Em"E2 D2 B,2 D2|"A"F2 E2 F2 A2|
"Bm"A4 A2B2| "D"A2G2 F3F|"Em"E2 D2 B,2 G,2|"A"A,4 A,4:||

